X: 16444
T: Hag At The Spinning Wheel, The
R: jig
M: 6/8
K: Gmajor
|:D|G3 B2G|c2A B2G|GBd cAG|~F3 DEF|
GAG B2G|c2A B2G|ded cAF|G3 G2:|
|:c|BAG AFD|DED FED|BAG AFD|~F3 ABc|
BAG AFD|DED FED|BdB cAF|G3 G2:|

